X: 630
T: Ehl-i Aşkın Neşvegâhı...
C: Tatyos Efendi
O: Turkey
F: http://compmusic.upf.edu/node/140
N: kurdilihicazkar--sarki--agiraksak--ehl-i_askin--tatyos_efendi
N: makam= kurdilihicazkar
N: form= sarki
N: usul= agiraksak = 9/4
M: 9/4
L: 1/16
K: C _B _e _A 
Q: 1/4=72
%%MIDI tuningsystem comma53
g4 e3/2d/c2 d4 B3/2A/G2 c4 BAAG G4 gf_1/4eg f4  | \
w:  ARANAĞME  | 
_2/4e2f4fe e2d2 b=ag2 f3e feed d4 cdef g4  | 
w:   | 
cd_2/4ef gfg2 Bcde fe.f2 d2_ed e2g2 f2e2 d2c2 B2A2  | 
w:   | 
GAGA GAGF (3defg2 (3fedc2 B3A BAAG G4 cd_2/4ef g4  | 
w:   | 
g4 e3/2d/c2 d4 B3/2A/G2 c4 BAAG G4 gf_1/4eg f4  | \
w:  ARANAĞME  | 
_2/4e2f4fe e2d2 b=ag2 f3e feed d4 cdef g4  | 
w:   | 
cd_2/4ef gfg2 Bcde fe.f2 d2_ed e2g2 f2e2 d2c2 B2A2  | 
w:   | 
GAGA GAGF (3defg2 (3fedc2 B3A BAAG G6F2 _2/4e2f2  | 
w:   | 
g8 z2f4g2 g8 g3=a f3g _3/4e2de  | \
w:  *  Ehl_ i  aş kın   | 
f2gf _1/4edc2 z2b4b=a a3g gfag g6f2 g2ag  | 
w:  *  *  *  *  *  *  neş ve *  gâ *  *  *  *  *  hı   | 
g8 z2_7/8ag f2g2 a2g2 _1/4b2ag g6gf f3_3/4e  | \
w:  *  kû *  *  şe_ i  *  *  *  *  mey  | 
_3/4edef gfed c2d_2/4e f2g2 _7/8a2gf _1/4b2ag g6ga gfef  | 
w:  *  *  *  *  *  *  *  *  *  ha *  *  *  *  *  *  *  *  ne dir   SAZ  | 
g3a g_1/4ba2 z2a4a2 a3g f2g2 e3c' _b2a2 g2f2  | \
w:  *  *  *  *  *  Sâ ki yâ  *  *  *  uş  | 
f2gf ede4fe d2e2 f3a gfed d6c2 d3/2f/ed  | 
w:  *  *  *  *  *  *  şâ *  *  kı  dil *  *  *  *  *  şâd   | 
defg gfed c2dc B2c2 d2e2 f2g2 f2gf feed dccB  | 
w:  *  *  *  *  *  *  *  *  *  ey *  *  le yen  *  *  *  pey  | 
c2dc BAGF G2e4dc B2cB BAAG G6ga gf_2/4ef  | 
w:  *  *  *  *  *  *  *  *  mâ *  *  *  *  *  *  *  *  ne dir   SAZ  | 
g3a g_1/4ba2 z2a4a2 a3g f2g2 e3c' _b2a2 g2f2  | \
w:  *  *  *  *  *  Sâ ki yâ  *  *  *  uş  | 
f2gf ede4fe d2e2 f3a gfed d6c2 d3/2f/ed  | 
w:  *  *  *  *  *  *  şâ *  *  kı  dil *  *  *  *  *  şâd   | 
defg gfed c2dc B2c2 d2e2 f2g2 f2gf feed dccB  | 
w:  *  *  *  *  *  *  *  *  *  ey *  *  le yen  *  *  *  pey  | 
c2dc BAGF G2e4dc B2cB BAAG G6de d^cBc  | 
w:  *  *  *  *  *  *  *  *  mâ *  *  *  *  *  *  *  *  ne dir   SAZ  | 
d3_7/8e d^cd2 z2c4d2 e3d ^f2ed g8 =a4  | \
w:  *  *  *  *  *  Güft_ ü  gûy_ *  *  *  *  i   | 
b=ag^f _7/8edc_1/4B c2e4ed d3c c3_B B3_7/8A G3e dcBA  | 
w:  *  *  *  *  *  *  *  *  *  â le *  me  *  *  *  al  | 
G3c _1/4Bcd4dc B2c2 d2_2/4e2 f2g2 g3f f3e e2de  | \
w:  *  *  *  *  *  dan *  *  ma  hep  *  *  *  ef  | 
f2gf _2/4edc4de f2g2 _7/8a2gf _1/4b2ag g6ga gfef  | 
w:  *  *  *  *  *  *  sa *  *  *  *  *  *  *  *  ne dir   SAZ  | 
g3a g_1/4ba2 z2a4a2 a3g f2g2 e3c' _b2a2 g2f2  | \
w:  *  *  *  *  *  Sâ ki yâ  *  *  *  uş  | 
f2gf ede4fe d2e2 f3a gfed d6c2 d3/2f/ed  | 
w:  *  *  *  *  *  *  şâ *  *  kı  dil *  *  *  *  *  şâd   | 
defg gfed c2dc B2c2 d2e2 f2g2 f2gf feed dccB  | 
w:  *  *  *  *  *  *  *  *  *  ey *  *  le yen  *  *  *  pey  | 
c2dc BAGF G2e4dc B2cB BAAG G6|
w:  *  *  *  *  *  *  *  *  mâ *  *  *  *  *  *  *  *  ne dir    | 


